X:96
T:Wilke's Fancy
M: C|
L:1/8
B:Thompson's Compleat Collection of 200 Favourite Country Dances, vol. 3 (London, 1773)
Z:Transcribed and edited by Flynn Titford-Mock, 2007
Z:abc's:AK/Fiddler's Companion
K:D
d2 fd e2 ge | f2 af ecBA | d2 fd e2 ge | faAc d2D2 :|
|: D2 FD AFdB | AFED CD[CA][A,c] | D2 FD AFdB | AGFE D2D2 :|

